localPackages/DesignSystem/Sources/DesignSystem/Resources/Assets.xcassets/IconSet/ic-folders.imageset/ic-folders.svg

<svg width="24" height="24" viewBox="0 0 24 24" fill="none" xmlns="http://www.w3.org/2000/svg">
<g id="ic-folders">
<path id="Icon" fill-rule="evenodd" clip-rule="evenodd" d="M22.5109 6.22507V17.25C22.5109 17.6642 22.1775 18 21.7663 18L6.87487 17.9999C6.46365 17.9999 6.1303 17.6641 6.1303 17.2499V3.75C6.1303 3.33579 6.46366 3 6.87487 3H12.7735C12.9464 3 13.114 3.06063 13.2474 3.17147L15.5241 5.06346C15.8442 5.32948 16.2463 5.47498 16.6613 5.47499L21.7663 5.47507C22.1775 5.47508 22.5109 5.81086 22.5109 6.22507ZM4.64116 3.75C4.64116 2.50736 5.64123 1.5 6.87487 1.5H12.7735C13.2923 1.5 13.7949 1.68187 14.195 2.01441L16.4718 3.9064C16.5251 3.95073 16.5921 3.97498 16.6613 3.97498L21.7663 3.97507C23 3.97509 24 4.98245 24 6.22507V17.25C24 18.4926 22.9999 19.5 21.7663 19.5L6.87486 19.4999C5.64122 19.4999 4.64116 18.4925 4.64116 17.2499V6.75H4.47828C3.65585 6.75 2.98914 7.42158 2.98914 8.25001V19.4999C2.98914 20.3283 3.65585 20.9999 4.47827 20.9999L18.7886 21C19.611 21 20.2777 20.3284 20.2777 19.5L21 19.5L21.7663 19.5C21.7663 21.1569 20.4334 22.5 18.7886 22.5L4.47826 22.4999C2.83341 22.4999 1.5 21.1567 1.5 19.4999V8.25001C1.5 6.59315 2.83342 5.25 4.47828 5.25H4.64116V3.75Z" fill="#0F0F0F"/>
</g>
</svg>

<svg xmlns="http://www.w3.org/2000/svg" width="24" height="24" viewBox="0 0 24 24">
  <g class="ic-folders">
    <path fill-rule="evenodd" d="M22.51 6.225V17.25c0 .414-.333.75-.744.75H6.875a.747.747 0 0 1-.745-.75V3.75c0-.414.334-.75.745-.75h5.899c.172 0 .34.06.473.171l2.277 1.892c.32.266.722.412 1.137.412h5.105c.412 0 .745.336.745.75ZM4.642 3.75c0-1.243 1-2.25 2.234-2.25h5.899c.518 0 1.02.182 1.421.514l2.277 1.892c.053.045.12.069.19.069h5.104A2.242 2.242 0 0 1 24 6.225V17.25c0 1.243-1 2.25-2.234 2.25H6.875a2.242 2.242 0 0 1-2.234-2.25V6.75h-.163c-.822 0-1.489.672-1.489 1.5V19.5c0 .828.667 1.5 1.49 1.5h14.31c.822 0 1.489-.672 1.489-1.5h1.488c0 1.657-1.333 3-2.977 3H4.479a2.989 2.989 0 0 1-2.979-3V8.25c0-1.657 1.333-3 2.978-3h.163v-1.5Z" class="Icon"/>
  </g>
</svg>
